icon-themes/sifr_svg/cmd/sc_chapternumberingdialog.svg

<svg viewBox="0 0 16 16" xmlns="http://www.w3.org/2000/svg"><path d="m2 1c0 .5522847-.4477153 1-1 1v1h1v3h1v-5zm3 0v2h10v-2zm0 3v2h6v-2zm-2.5 5c-.8284271 0-1.5.6715729-1.5 1.5h1c0-.276142.2238576-.5.5-.5s.5.223858.5.5c0 .137769-.030367.208424-.0878906.287109l-1.9121094 2.392579v.820312h3v-1h-1.6015625l1.2617187-1.595703c.1505506-.164148.3398438-.404297.3398438-.904297 0-.8284271-.6715729-1.5-1.5-1.5zm2.5 0v2h3v-2zm7 0v1c1.560655 1.623957-.566483 3.497742-2 2h-1v1c.8.77108 1.635355 1 2.4 1h1.6l2 2h1v-1l-2-2v-1.6c0-.881979-.214695-1.6-1-2.4zm-7 3v2h3v-2z" fill="#555753"/></svg>

<svg xmlns="http://www.w3.org/2000/svg" viewBox="0 0 16 16">
  <path
     style="fill:#555753"
     d="M 2,1 C 2,1.5522847 1.5522847,2 1,2 V 3 H 2 V 6 H 3 V 1 Z M 5,1 V 3 H 15 V 1 Z m 0,3 v 2 h 6 V 4 Z M 2.5,9 C 1.6715729,9 1,9.6715729 1,10.5 H 2 C 2,10.223858 2.2238576,10 2.5,10 2.7761424,10 3,10.223858 3,10.5 3,10.637769 2.969633,10.708424 2.9121094,10.787109 L 1,13.179688 V 14 H 4 V 13 H 2.3984375 L 3.6601562,11.404297 C 3.8107068,11.240149 4,11 4,10.5 4,9.6715729 3.3284271,9 2.5,9 Z M 5,9 v 2 H 8 V 9 Z m 7,0 v 1 c 1.560655,1.623957 -0.566483,3.497742 -2,2 H 9 v 1 c 0.8,0.77108 1.635355,1 2.4,1 H 13 l 2,2 h 1 V 15 L 14,13 V 11.4 C 14,10.518021 13.785305,9.8 13,9 Z m -7,3 v 2 h 3 v -2 z"
     />
</svg>
